svg/u1f6aa.svg

<svg viewBox="0 0 128 128" xmlns="http://www.w3.org/2000/svg">
  <g>
    <path d="M33.28,123.87L94.71,124c1.22,0,2.2-0.89,2.2-1.99V6.12c0-1.1-0.98-1.99-2.19-1.99L33.29,4 c-1.22,0-2.2,0.89-2.2,1.99v115.88C31.09,122.97,32.07,123.87,33.28,123.87z" fill="#B06542"/>
    <g>
      <g>
        <path d="M78.72,20.72v30.32H49.28V20.72H78.72 M83.63,15.72H44.37v40.32h39.26V15.72L83.63,15.72z" fill="#874D36"/>
        <polygon points="83.63,15.9 78.53,20.72 78.72,20.72 78.72,51.04 49.65,51.04 44.37,56.04 83.63,56.04 " fill="#C87D5E"/>
      </g>
      <g>
        <path d="M78.72,78.96v28.32H49.28V78.96H78.72 M83.63,73.96H44.37v38.32h39.26V73.96L83.63,73.96z" fill="#874D36"/>
        <polygon points="83.63,74.14 78.53,78.96 78.72,78.96 78.72,107.28 49.65,107.28 44.37,112.28 83.63,112.28 " fill="#C87D5E"/>
      </g>
    </g>
    <g>
      <circle cx="44.18" cy="66" r="5.25" fill="#874D36"/>
      <circle cx="42.14" cy="64.45" r="5.25" fill="#BDBDBD"/>
      <path d="M43.38,61.11c0.13,0.65-0.25,0.97-0.79,1.36c-0.54,0.39-1.21,0.7-1.7,1.53 c-0.35,0.59-0.46,1.37-1.03,1.76c-0.56,0.38-1.2,0.31-1.5-0.36c-0.43-0.95-0.44-2.6,0.77-3.95 C40.29,60.16,43.06,59.47,43.38,61.11z" fill="#EEEEEE"/>
    </g>
  </g>
</svg>

<svg viewBox="0 0 128 128" xmlns="http://www.w3.org/2000/svg">
  <defs/>
  <path d="M33.28,123.87 L94.71,124 C95.93,124 96.91,123.11 96.91,122.01 L96.91,6.12 C96.91,5.02 95.93,4.13 94.72,4.13 L33.29,4 C32.07,4 31.09,4.89 31.09,5.99 L31.09,121.87 C31.09,122.97 32.07,123.87 33.28,123.87 Z" fill="#B06542"/>
  <path d="M78.72,20.72 L78.72,51.04 L49.28,51.04 L49.28,20.72 L78.72,20.72 M83.63,15.72 L44.37,15.72 L44.37,56.04 L83.63,56.04 L83.63,15.72 L83.63,15.72 Z" fill="#874D36"/>
  <path d="M83.63,15.9 L78.53,20.72 L78.72,20.72 L78.72,51.04 L49.65,51.04 L44.37,56.04 L83.63,56.04 Z" fill="#C87D5E"/>
  <path d="M78.72,78.96 L78.72,107.28 L49.28,107.28 L49.28,78.96 L78.72,78.96 M83.63,73.96 L44.37,73.96 L44.37,112.28 L83.63,112.28 L83.63,73.96 L83.63,73.96 Z" fill="#874D36"/>
  <path d="M83.63,74.14 L78.53,78.96 L78.72,78.96 L78.72,107.28 L49.65,107.28 L44.37,112.28 L83.63,112.28 Z" fill="#C87D5E"/>
  <path d="M49.43,66 A5.25 5.25 0 1 1 38.93,66 A5.25 5.25 0 1 1 49.43,66 Z" fill="#874D36"/>
  <path d="M47.39,64.45 A5.25 5.25 0 1 1 36.89,64.45 A5.25 5.25 0 1 1 47.39,64.45 Z" fill="#BDBDBD"/>
  <path d="M43.38,61.11 C43.51,61.76 43.13,62.08 42.59,62.47 C42.05,62.86 41.38,63.17 40.89,64 C40.54,64.59 40.43,65.37 39.86,65.76 C39.3,66.14 38.66,66.07 38.36,65.4 C37.93,64.45 37.92,62.8 39.13,61.45 C40.29,60.16 43.06,59.47 43.38,61.11 Z" fill="#EEEEEE"/>
</svg>
